assets/icons/24px/outline/hammer-24px.svg

<svg width="18" height="18" viewBox="0 0 18 18" fill="none" xmlns="http://www.w3.org/2000/svg">
<path d="M14.0614 6.31504L14.2234 6.40985C14.5426 6.59658 14.6519 7.01014 14.4676 7.33357L13.0897 9.75249C12.9054 10.0759 12.4974 10.1867 12.1782 10L12.0162 9.90519C11.5773 9.64839 11.2819 9.19868 11.2175 8.68926C11.1709 8.32148 10.7853 8.10546 10.4532 8.26119L10.0351 8.45734C9.86339 8.53785 9.66381 8.52873 9.5 8.43288L7.06003 7.16212C6.822 7.02284 6.71268 6.7337 6.79791 6.46888L6.98097 5.70511C7.03779 5.52856 6.966 5.33244 6.79791 5.25852C5.45601 4.66836 3.44333 5.59012 3.44333 4.57109C3.44333 3.55207 6.82515 2.23782 9.07124 3.55208L11.5459 4.84314C11.7097 4.93899 11.8166 5.10919 11.8336 5.30012L11.8751 5.76523C11.908 6.13452 12.2855 6.365 12.623 6.22196C13.0905 6.02382 13.6225 6.05825 14.0614 6.31504Z" stroke="white"/>
<path d="M6.89743 7L3.09466 13.7446C2.91227 14.0278 3.00191 14.4081 3.29089 14.5772L4.35235 15.1983C4.64133 15.3674 5.01114 15.2559 5.16194 14.9542L8.94286 8.07979" stroke="white"/>
</svg>

<svg width="18" height="18" fill="none" xmlns="http://www.w3.org/2000/svg"><path d="M14.061 6.315l.162.095c.32.187.429.6.245.924L13.09 9.752a.663.663 0 0 1-.912.248l-.162-.095a1.646 1.646 0 0 1-.799-1.216.54.54 0 0 0-.764-.428l-.418.196a.575.575 0 0 1-.535-.024l-2.44-1.27a.593.593 0 0 1-.262-.694l.183-.764c.057-.176-.015-.373-.183-.446-1.342-.59-3.355.331-3.355-.688s3.382-2.333 5.628-1.019l2.475 1.291c.164.096.27.266.288.457l.041.465c.033.37.41.6.748.457.468-.198 1-.164 1.438.093z" stroke="#fff"/><path d="M6.897 7l-3.802 6.745a.594.594 0 0 0 .196.832l1.061.621c.29.17.66.058.81-.244l3.78-6.874" stroke="#fff"/></svg>
